icons/jsconfig.svg

<!--
  - The MIT License (MIT)
  -
  - Copyright (c) 2015-2024 Elior "Mallowigi" Boukhobza
  -
  - Permission is hereby granted, free of charge, to any person obtaining a copy
  - of this software and associated documentation files (the "Software"), to deal
  - in the Software without restriction, including without limitation the rights
  - to use, copy, modify, merge, publish, distribute, sublicense, and/or sell
  - copies of the Software, and to permit persons to whom the Software is
  - furnished to do so, subject to the following conditions:
  -
  - The above copyright notice and this permission notice shall be included in all
  - copies or substantial portions of the Software.
  -
  - THE SOFTWARE IS PROVIDED "AS IS", WITHOUT WARRANTY OF ANY KIND, EXPRESS OR
  - IMPLIED, INCLUDING BUT NOT LIMITED TO THE WARRANTIES OF MERCHANTABILITY,
  - FITNESS FOR A PARTICULAR PURPOSE AND NONINFRINGEMENT. IN NO EVENT SHALL THE
  - AUTHORS OR COPYRIGHT HOLDERS BE LIABLE FOR ANY CLAIM, DAMAGES OR OTHER
  - LIABILITY, WHETHER IN AN ACTION OF CONTRACT, TORT OR OTHERWISE, ARISING FROM,
  - OUT OF OR IN CONNECTION WITH THE SOFTWARE OR THE USE OR OTHER DEALINGS IN THE
  - SOFTWARE.
  -
  -->

<svg xmlns="http://www.w3.org/2000/svg" version="1.0" viewBox="0 0 24 24" width="16px" height="16px">
  <path
      d="M 10.001953 2 C 9.7519531 2 9.5419531 2.1799219 9.5019531 2.4199219 L 9.1328125 5.0703125 C 8.5028125 5.3203125 7.9614062 5.6607812 7.4414062 6.0507812 L 4.9511719 5.0507812 C 4.7311719 4.9607813 4.4617969 5.0495313 4.3417969 5.2695312 L 2.3417969 8.7304688 C 2.2117969 8.9504688 2.2728906 9.2191406 2.4628906 9.3691406 L 4.5722656 11 C 4.5322656 11.34 4.5019531 11.67 4.5019531 12 C 4.5019531 12.33 4.5322656 12.650703 4.5722656 12.970703 L 2.4628906 14.630859 C 2.2728906 14.780859 2.2117969 15.049531 2.3417969 15.269531 L 4.3417969 18.730469 C 4.4617969 18.950469 4.7311719 19.029219 4.9511719 18.949219 L 7.4414062 17.939453 C 7.9614063 18.339453 8.5028125 18.679687 9.1328125 18.929688 L 9.5019531 21.580078 C 9.5419531 21.820078 9.7519531 22 10.001953 22 L 14.001953 22 C 14.251953 22 14.461953 21.820078 14.501953 21.580078 L 14.871094 18.929688 C 15.501094 18.669687 16.0425 18.339453 16.5625 17.939453 L 19.052734 18.949219 C 19.272734 19.029219 19.542109 18.950469 19.662109 18.730469 L 21.662109 15.269531 C 21.782109 15.049531 21.732969 14.780859 21.542969 14.630859 L 19.431641 12.970703 C 19.471641 12.650703 19.501953 12.33 19.501953 12 C 19.501953 11.67 19.471641 11.34 19.431641 11 L 21.542969 9.3691406 C 21.732969 9.2191406 21.782109 8.9504688 21.662109 8.7304688 L 19.662109 5.2695312 C 19.542109 5.0495313 19.272734 4.9607812 19.052734 5.0507812 L 16.5625 6.0507812 C 16.0425 5.6607812 15.501094 5.3203125 14.871094 5.0703125 L 14.501953 2.4199219 C 14.461953 2.1799219 14.251953 2 14.001953 2 L 10.001953 2 z M 15.105469 8 A 2.3665036 2.3698014 0 0 1 17.146484 9.2929688 L 15.900391 10.09375 A 1.0887413 1.0902586 0 0 0 14.871094 9.40625 A 0.69666347 0.69763431 0 0 0 14.105469 10.033203 C 14.103269 10.05413 14.103516 10.074463 14.103516 10.095703 C 14.103516 10.576878 14.40097 10.77233 15.085938 11.070312 L 15.486328 11.240234 C 16.846904 11.824486 17.613281 12.420721 17.613281 13.759766 C 17.613281 15.203293 16.481993 15.994141 14.960938 15.994141 A 3.0762675 3.0805544 0 0 1 12.046875 14.351562 L 13.345703 13.59375 A 1.7437641 1.7461941 0 0 0 14.923828 14.566406 C 15.587272 14.566406 16.011719 14.234077 16.011719 13.775391 C 16.011719 13.225811 15.575585 13.03094 14.845703 12.710938 L 14.445312 12.539062 C 13.290133 12.046174 12.523437 11.428359 12.523438 10.123047 C 12.523438 8.9203429 13.437367 8.0058594 14.867188 8.0058594 A 2.3665036 2.3698014 0 0 1 15.105469 8 z M 9.5761719 8.0996094 L 11.177734 8.0996094 L 11.177734 13.574219 C 11.177734 15.234204 10.205702 15.990234 8.7871094 15.990234 A 2.4853435 2.4888068 0 0 1 6.3867188 14.525391 L 7.6894531 13.734375 C 7.941169 14.181349 8.1699344 14.558594 8.71875 14.558594 C 9.2446396 14.558594 9.5761719 14.35196 9.5761719 13.550781 L 9.5761719 8.0996094 z"
      fill="#ffca2f" data-iconColor="JS Config"/>
</svg>

<svg xmlns="http://www.w3.org/2000/svg" viewBox="0 0 24 24"><path fill="#ffca2f" d="M10.002 2c-.25 0-.46.18-.5.42l-.37 2.65c-.63.25-1.17.59-1.69.98l-2.49-1a.49.49 0 0 0-.61.22l-2 3.46a.49.49 0 0 0 .12.64L4.573 11c-.04.34-.07.67-.07 1s.03.65.07.97l-2.11 1.66a.49.49 0 0 0-.12.64l2 3.46c.12.22.39.3.61.22l2.49-1.01c.52.4 1.06.74 1.69.99l.37 2.65c.04.24.25.42.5.42h4c.25 0 .46-.18.5-.42l.37-2.65c.63-.26 1.17-.59 1.69-.99l2.49 1.01c.22.08.49 0 .61-.22l2-3.46a.5.5 0 0 0-.119-.64l-2.111-1.66c.04-.32.07-.64.07-.97s-.03-.66-.07-1l2.111-1.63c.19-.15.24-.42.12-.64l-2-3.46a.49.49 0 0 0-.61-.22l-2.49 1c-.52-.39-1.062-.73-1.692-.98l-.369-2.65a.505.505 0 0 0-.5-.42zm5.103 6a2.367 2.37 0 0 1 2.041 1.293l-1.246.8a1.089 1.09 0 0 0-1.029-.687.697.698 0 0 0-.766.627q-.002.03-.001.063c0 .48.297.676.982.974l.4.17c1.36.584 2.127 1.18 2.127 2.52 0 1.443-1.131 2.234-2.652 2.234a3.076 3.08 0 0 1-2.914-1.642l1.299-.758a1.744 1.746 0 0 0 1.578.972c.663 0 1.088-.332 1.088-.79 0-.55-.436-.745-1.166-1.065l-.4-.172c-1.156-.493-1.923-1.11-1.923-2.416 0-1.203.914-2.117 2.344-2.117A2.367 2.37 0 0 1 15.105 8m-5.529.1h1.602v5.474c0 1.66-.972 2.416-2.39 2.416a2.485 2.489 0 0 1-2.401-1.465l1.302-.79c.252.446.48.824 1.03.824.526 0 .857-.207.857-1.008z" data-iconColor="JS Config"/></svg>
